X: 97
T:Jenny Dang The Weaver (#293)
M:4/4
L:1/8
S:Patsy Touhey manuscript
R:Reel
K:D
B2 "tr"BA B2 dB|ABdf gfed|A2 AF A2 dB|1ABdf gfed:|2ABdf gfec||
d2 fd efge|d2 fd "tr"g2 fe|d2 fd efgf|eaaf gfec|
d2 fd efge|d2 fd g2 ga|bgaf gfed|(3Bcd ef gfed||
%
% This old time Scotch reel found in many publications, ancient and 
% modern, first appeared in Bremner's Collections of Scots Reels or
% Country Dances 1757. The version of it as played by the famous
% Patsy Touhey on the Irish or Union pipes, much less cranky than
% the original and later versions, may be found interesting.

